src/lib/packages/icons/src/assets/filled/file-check.svg

<svg width="24" height="24" viewBox="0 0 24 24" fill="none" xmlns="http://www.w3.org/2000/svg">
<path d="M14.75 6V3.75L19.25 8.25H17C15.42 8.25 14.75 7.58 14.75 6ZM20 9.75V18C20 20 19 21 17 21H8C6 21 5 20 5 18V6C5 4 6 3 8 3H13.25V6C13.25 8.42 14.58 9.75 17 9.75H20ZM15.53 11.803C15.237 11.51 14.762 11.51 14.469 11.803L11.666 14.606L10.5291 13.47C10.2361 13.177 9.76102 13.177 9.46802 13.47C9.17502 13.763 9.17502 14.238 9.46802 14.531L11.135 16.198C11.276 16.339 11.466 16.418 11.665 16.418C11.864 16.418 12.0551 16.339 12.1951 16.198L15.5281 12.865C15.8231 12.571 15.823 12.096 15.53 11.803Z" fill="currentColor"/>
</svg>

<svg xmlns="http://www.w3.org/2000/svg" width="24" height="24" fill="none"><path fill="currentColor" d="M14.75 6V3.75l4.5 4.5H17c-1.58 0-2.25-.67-2.25-2.25ZM20 9.75V18c0 2-1 3-3 3H8c-2 0-3-1-3-3V6c0-2 1-3 3-3h5.25v3c0 2.42 1.33 3.75 3.75 3.75h3Zm-4.47 2.053a.75.75 0 0 0-1.061 0l-2.803 2.803-1.137-1.136a.75.75 0 0 0-1.061 1.061l1.667 1.667a.749.749 0 0 0 1.06 0l3.333-3.333a.75.75 0 0 0 .002-1.062Z"/></svg>
